public/svg/white/mnz.svg

<svg xmlns="http://www.w3.org/2000/svg" width="32" height="32" viewBox="0 0 32 32"><path fill="#FFF" d="M16,32 C7.163444,32 0,24.836556 0,16 C0,7.163444 7.163444,0 16,0 C24.836556,0 32,7.163444 32,16 C32,24.836556 24.836556,32 16,32 Z M25.5686356,21.3160162 C25.437488,20.5275152 25.1751929,19.7390142 24.9784716,19.0162216 C24.7817503,18.2277205 24.585029,17.4392195 24.3883077,16.6507185 C23.8637175,14.6794659 23.3391274,12.7082134 22.8145372,10.7369608 C22.6833897,10.2770019 22.6178159,9.81704293 22.4866683,9.357084 C22.4210946,9.15995874 22.3555208,8.89712507 22.1587995,8.76570823 C21.9620782,8.69999981 21.7653569,8.69999981 21.5686356,8.69999981 C21.3063405,8.69999981 21.0440454,8.69999981 20.7817503,8.69999981 C20.2571601,8.69999981 19.6669962,8.69999981 19.142406,8.69999981 C18.7489634,8.69999981 18.4210946,8.69999981 18.0276519,8.76570823 C17.6997831,8.83141665 17.3719142,9.0285419 17.2407667,9.357084 C17.1751929,9.48850084 17.2407667,9.68562609 17.3719142,9.75133451 C17.437488,9.81704293 17.5686356,9.75133451 17.6342093,9.68562609 C17.6997831,9.68562609 17.8965044,9.48850084 17.9620782,9.48850084 L21.0440454,20.8560573 L21.0440454,20.9217657 C21.1096192,21.1845994 21.2407667,21.4474331 21.437488,21.5131415 C21.5686356,21.5788499 21.6997831,21.6445583 21.8965044,21.6445583 L22.2243733,21.6445583 L22.7489634,21.6445583 L24.3227339,21.6445583 L25.1751929,21.6445583 C25.3719142,21.7102667 25.6342093,21.5788499 25.5686356,21.3160162 Z M17.9620782,21.3160162 C17.8309306,20.5275152 17.5686356,19.7390142 17.3719142,19.0162216 C17.1751929,18.2277205 16.9784716,17.4392195 16.7817503,16.6507185 C16.2571601,14.6794659 15.73257,12.7082134 15.2079798,10.7369608 C15.0768323,10.2770019 15.0112585,9.81704293 14.880111,9.357084 C14.8145372,9.15995874 14.7489634,8.89712507 14.5522421,8.76570823 C14.3555208,8.69999981 14.1587995,8.69999981 13.9620782,8.69999981 C13.6997831,8.69999981 13.437488,8.69999981 13.1751929,8.69999981 C12.6506028,8.69999981 12.0604388,8.69999981 11.5358487,8.69999981 C11.142406,8.69999981 10.8145372,8.69999981 10.4210946,8.76570823 C10.0932257,8.83141665 9.76535687,9.0285419 9.63420933,9.357084 C9.56863556,9.48850084 9.63420933,9.68562609 9.76535687,9.75133451 C9.83093064,9.81704293 9.96207818,9.75133451 10.0276519,9.68562609 C10.0932257,9.68562609 10.289947,9.48850084 10.3555208,9.48850084 L13.437488,20.8560573 L13.437488,20.9217657 C13.5030618,21.1845994 13.6342093,21.4474331 13.8309306,21.5131415 C13.9620782,21.5788499 14.0932257,21.6445583 14.289947,21.6445583 L14.6178159,21.6445583 L15.142406,21.6445583 L16.7161765,21.6445583 L17.5686356,21.6445583 C17.7653569,21.7102667 18.0276519,21.5788499 17.9620782,21.3160162 Z M11.9292913,18.8190963 L9.83093064,10.605544 C9.83093064,10.4741271 9.6997831,10.3427103 9.50306179,10.3427103 C9.37191424,10.3427103 9.2407667,10.4741271 9.17519293,10.605544 L6.42109457,20.9874741 L6.42109457,21.118891 C6.42109457,21.4474331 6.68338965,21.7759752 7.07683228,21.7759752 L10.5522421,21.7759752 C10.8145372,21.7759752 11.0768323,21.5788499 11.142406,21.3160162 L11.9292913,18.8190963 Z M19.6669962,18.6219711 L17.3719142,10.3427103 C17.3719142,10.2112934 17.2407667,10.145585 17.1096192,10.145585 C16.9784716,10.145585 16.8473241,10.2112934 16.8473241,10.3427103 L16.3883077,11.9854208 L18.6833897,20.0018479 C18.7489634,20.1332647 18.8145372,20.1989731 18.9456847,20.1989731 C19.0768323,20.1989731 19.142406,20.1332647 19.2079798,20.0018479 L19.6669962,18.6219711 Z"/></svg>

<svg xmlns="http://www.w3.org/2000/svg" width="32" height="32" viewBox="0 0 32 32"><path fill="#FFF" d="M16 32C7.163 32 0 24.837 0 16S7.163 0 16 0s16 7.163 16 16-7.163 16-16 16zm9.569-10.684c-.132-.788-.394-1.577-.59-2.3l-.59-2.365-1.574-5.914c-.132-.46-.197-.92-.328-1.38-.066-.197-.131-.46-.328-.591-.197-.066-.394-.066-.59-.066h-2.427c-.393 0-.72 0-1.114.066-.328.065-.656.263-.787.591a.316.316 0 00.13.394c.066.066.198 0 .263-.065.066 0 .263-.197.328-.197l3.082 11.367v.066c.066.263.197.525.393.591.132.066.263.132.46.132h3.278c.197.065.46-.066.394-.329zm-7.607 0c-.131-.788-.393-1.577-.59-2.3l-.59-2.365-1.574-5.914c-.131-.46-.197-.92-.328-1.38-.065-.197-.131-.46-.328-.591-.196-.066-.393-.066-.59-.066h-2.427c-.393 0-.72 0-1.114.066-.328.065-.656.263-.787.591a.316.316 0 00.131.394c.066.066.197 0 .263-.065.065 0 .262-.197.328-.197l3.081 11.367v.066c.066.263.197.525.394.591.131.066.262.132.459.132h3.279c.196.065.459-.066.393-.329zm-6.033-2.497l-2.098-8.213c0-.132-.131-.263-.328-.263-.131 0-.262.131-.328.263L6.421 20.987v.132c0 .328.262.657.656.657h3.475a.63.63 0 00.59-.46l.787-2.497zm7.738-.197l-2.295-8.28c0-.13-.131-.196-.262-.196-.132 0-.263.065-.263.197l-.459 1.642 2.295 8.017c.066.131.132.197.263.197.13 0 .196-.066.262-.197l.459-1.38z"/></svg>
